Travel-Platform/WebContent/_img/TP-logo.svg

<?xml version="1.0" standalone="no"?><!DOCTYPE svg PUBLIC "-//W3C//DTD SVG 1.1//EN" "http://www.w3.org/Graphics/SVG/1.1/DTD/svg11.dtd"><svg t="1589644295722" class="icon" viewBox="0 0 1024 1024" version="1.1" xmlns="http://www.w3.org/2000/svg" p-id="6527" width="256" height="256" xmlns:xlink="http://www.w3.org/1999/xlink"><defs><style type="text/css"></style></defs><path d="M511.001949 1.996101C228.753216 1.996101 0 230.749318 0 512.998051s228.753216 511.001949 511.001949 511.001949 511.001949-228.753216 511.00195-511.001949S793.250682 1.996101 511.001949 1.996101z m-41.518908 795.745809H306.900585V473.874464h162.582456v323.867446z m-1.197661-408.102924H145.016764V227.05653H468.28538c44.912281 0 81.241326 36.42885 81.241326 81.241326 0 44.912281-36.329045 81.341131-81.241326 81.34113z m206.496686 246.718129l-0.99805 0.099805v162.582456H511.301365V473.874464h154.99727c31.837817 0 48.205848-18.763353 48.205848-41.818324 0-23.054971-17.166472-41.818324-48.205848-41.818323l-125.25536-0.598831s50.301754-17.964912 50.301754-81.241325c0-63.076803-54.992593-80.642495-54.992592-80.642495l131.243664-0.598831c126.652632 0 209.391033 92.818713 209.391034 204.99961 0 111.981287-90.323587 203.003509-202.205069 204.20117z" p-id="6528"></path><path d="M511.001949 0.998051C228.753216 0.998051 0 229.751267 0 512s228.753216 511.001949 511.001949 511.001949 511.001949-228.753216 511.00195-511.001949S793.250682 0.998051 511.001949 0.998051z m-41.518908 795.745809H306.900585V472.876413h162.582456v323.867447z m-1.197661-408.102924H145.016764V226.05848H468.28538c44.912281 0 81.241326 36.42885 81.241326 81.241325 0 44.912281-36.329045 81.341131-81.241326 81.341131z m206.496686 246.718128l-0.99805 0.099805v162.582457H511.301365V472.876413h154.99727c31.837817 0 48.205848-18.763353 48.205848-41.818323 0-23.054971-17.166472-41.818324-48.205848-41.818324l-125.25536-0.59883s50.301754-17.964912 50.301754-81.241326c0-63.076803-54.992593-80.642495-54.992592-80.642495l131.243664-0.59883c126.652632 0 209.391033 92.818713 209.391034 204.99961 0 111.981287-90.323587 203.003509-202.205069 204.201169z" p-id="6529"></path><path d="M511.001949 0C228.753216 0 0 228.753216 0 511.001949s228.753216 511.001949 511.001949 511.00195 511.001949-228.753216 511.00195-511.00195S793.250682 0 511.001949 0z m-41.518908 795.745809H306.900585V471.878363h162.582456v323.867446z m-1.197661-408.102924H145.016764V225.060429H468.28538c44.912281 0 81.241326 36.42885 81.241326 81.241325 0 44.912281-36.329045 81.341131-81.241326 81.341131z m206.496686 246.718129l-0.99805 0.099805v162.582456H511.301365V471.878363h154.99727c31.837817 0 48.205848-18.763353 48.205848-41.818324 0-23.054971-17.166472-41.818324-48.205848-41.818324l-125.25536-0.59883s50.301754-17.964912 50.301754-81.241326c0-63.076803-54.992593-80.642495-54.992592-80.642495l131.243664-0.59883c126.652632 0 209.391033 92.818713 209.391034 204.99961 0 111.981287-90.323587 203.003509-202.205069 204.20117z" p-id="6530" data-spm-anchor-id="a313x.7781069.0.i0" class="selected" fill="#0f4c81"></path></svg>

<svg width="1024" height="1024" xmlns="http://www.w3.org/2000/svg" class="icon">
 <defs>
  <style type="text/css"/>
 </defs>
 <g>
  <title>background</title>
  <rect fill="none" id="canvas_background" height="402" width="582" y="-1" x="-1"/>
 </g>
 <g>
  <title>Layer 1</title>
  <path id="svg_1" d="m511.00195,1.9961c-282.24873,0 -511.00195,228.75322 -511.00195,511.00195s228.75322,511.00195 511.00195,511.00195s511.00195,-228.75322 511.00195,-511.00195s-228.75322,-511.00195 -511.00195,-511.00195zm-41.51891,795.74581l-162.58246,0l0,-323.86745l162.58246,0l0,323.86745zm-1.19766,-408.10292l-323.26862,0l0,-162.58246l323.26862,0c44.91228,0 81.24133,36.42885 81.24133,81.24133c0,44.91228 -36.32905,81.34113 -81.24133,81.34113zm206.49669,246.71813l-0.99805,0.0998l0,162.58246l-162.48266,0l0,-325.16492l154.99727,0c31.83782,0 48.20585,-18.76335 48.20585,-41.81832c0,-23.05497 -17.16647,-41.81832 -48.20585,-41.81832l-125.25536,-0.59883s50.30176,-17.96492 50.30176,-81.24133c0,-63.0768 -54.99259,-80.64249 -54.99259,-80.64249l131.24366,-0.59884c126.65263,0 209.39103,92.81872 209.39103,204.99961c0,111.98129 -90.32358,203.00351 -202.20506,204.20117l0,0.00001z"/>
  <path id="svg_2" d="m511.00195,0.99805c-282.24873,0 -511.00195,228.75322 -511.00195,511.00195s228.75322,511.00195 511.00195,511.00195s511.00195,-228.75322 511.00195,-511.00195s-228.75322,-511.00195 -511.00195,-511.00195zm-41.51891,795.74581l-162.58246,0l0,-323.86745l162.58246,0l0,323.86745zm-1.19766,-408.10292l-323.26862,0l0,-162.58246l323.26862,0c44.91228,0 81.24133,36.42885 81.24133,81.24132c0,44.91229 -36.32905,81.34114 -81.24133,81.34114zm206.49669,246.71812l-0.99805,0.09981l0,162.58246l-162.48266,0l0,-325.16492l154.99727,0c31.83782,0 48.20585,-18.76335 48.20585,-41.81832c0,-23.05497 -17.16647,-41.81832 -48.20585,-41.81832l-125.25536,-0.59883s50.30176,-17.96492 50.30176,-81.24133c0,-63.0768 -54.99259,-80.6425 -54.99259,-80.6425l131.24366,-0.59883c126.65263,0 209.39103,92.81872 209.39103,204.99961c0,111.98129 -90.32358,203.00351 -202.20506,204.20117z"/>
  <ellipse opacity="0.8" stroke="#000" ry="469.000618" rx="469.000618" id="svg_4" cy="505.294221" cx="507.624372" stroke-width="1.5" fill="#fff"/>
  <path id="svg_3" fill="#0f4c81" class="selected" d="m511.00195,0c-282.24873,0 -511.00195,228.75322 -511.00195,511.00195s228.75322,511.00195 511.00195,511.00195s511.00195,-228.75322 511.00195,-511.00195s-228.75322,-511.00195 -511.00195,-511.00195zm-41.51891,795.74581l-162.58246,0l0,-323.86745l162.58246,0l0,323.86745zm-1.19766,-408.10292l-323.26862,0l0,-162.58246l323.26862,0c44.91228,0 81.24133,36.42885 81.24133,81.24132c0,44.91229 -36.32905,81.34114 -81.24133,81.34114zm206.49669,246.71812l-0.99805,0.09981l0,162.58245l-162.48266,0l0,-325.16491l154.99727,0c31.83782,0 48.20585,-18.76335 48.20585,-41.81832c0,-23.05497 -17.16647,-41.81833 -48.20585,-41.81833l-125.25536,-0.59883s50.30176,-17.96491 50.30176,-81.24132c0,-63.0768 -54.99259,-80.6425 -54.99259,-80.6425l131.24366,-0.59883c126.65263,0 209.39103,92.81872 209.39103,204.99961c0,111.98129 -90.32358,203.00351 -202.20506,204.20117z"/>
 </g>
</svg>
